material/.icons/material/traffic-cone.svg

<svg xmlns="http://www.w3.org/2000/svg" viewBox="0 0 24 24"><path d="M17 15l1 4h3v3H3v-3h3l1-4h10m-2-7l1 4H8l1-4h6m-2-7l1 4h-4l1-4h2z"/></svg>

<?xml version="1.0" encoding="UTF-8"?><!DOCTYPE svg PUBLIC "-//W3C//DTD SVG 1.1//EN" "http://www.w3.org/Graphics/SVG/1.1/DTD/svg11.dtd"><svg xmlns="http://www.w3.org/2000/svg" xmlns:xlink="http://www.w3.org/1999/xlink" version="1.1" id="mdi-traffic-cone" width="24" height="24" viewBox="0 0 24 24"><path d="M17 15L18 19H21V22H3V19H6L7 15H17M15 8L16 12H8L9 8H15M13 1L14 5H10L11 1H13Z" /></svg>
